X:1
T: Lord George Gordon Lennox
C:Alexander Walker
R:Reel
Q: 232
K:Gm
M:4/4
L:1/8
|:G2 BF GA Bc|df cf AF FA|G2 BF GA Bc|df cA G2 G2|
G2 BF GA Bc|df cf AF FA|G2 BF GA Bc|df cA G2 Gd|
g2 dg Bg dg|Af cf AF F^f|g2 dg Bg dg|bg a^f g2 ga|
bg a^f ge =fd|cf cB AF FA|G2 BF GA Bc|df cA G2 G2:|
